X: 31151
T: Paddy Fahey's
R: reel
M: 4/4
K: Dmajor
|:dcAG EFGE|A2EA cdec|dcAB cdef|g2fe dfec|
dcAG EFGE|A2EA cdec|dcAB cded|cAGE FDDc:|
|:d2af gede|dcAG EFGE|Ad d2 adfa|gedc Ad d2|
Fdef gfed|=ceAB c3d|eaag efgb|a^ged =cA (3cde:|

